data/icons/hicolor_actions_scalable_location-symbolic.svg

<?xml version="1.0" encoding="UTF-8" standalone="no"?>
<svg xmlns:dc="http://purl.org/dc/elements/1.1/" xmlns:cc="http://creativecommons.org/ns#" xmlns:rdf="http://www.w3.org/1999/02/22-rdf-syntax-ns#" xmlns:svg="http://www.w3.org/2000/svg" xmlns="http://www.w3.org/2000/svg" xmlns:xlink="http://www.w3.org/1999/xlink" xmlns:sodipodi="http://sodipodi.sourceforge.net/DTD/sodipodi-0.dtd" xmlns:inkscape="http://www.inkscape.org/namespaces/inkscape" height="16" width="16" version="1.1" id="svg6629" inkscape:version="0.48.4 r9939" sodipodi:docname="hicolor_actions_scalable_location-symbolic.svg">
   <metadata id="metadata6642">
      <rdf:RDF>
         <cc:Work rdf:about="">
            <dc:format>image/svg+xml</dc:format>
            <dc:type rdf:resource="http://purl.org/dc/dcmitype/StillImage" />
         </cc:Work>
      </rdf:RDF>
   </metadata>
   <sodipodi:namedview pagecolor="#ffffff" bordercolor="#666666" borderopacity="1" objecttolerance="10" gridtolerance="10" guidetolerance="10" inkscape:pageopacity="0" inkscape:pageshadow="2" inkscape:window-width="1366" inkscape:window-height="716" id="namedview6640" showgrid="true" inkscape:snap-bbox="true" inkscape:zoom="14.75" inkscape:cx="12.994164" inkscape:cy="10.702695" inkscape:window-x="0" inkscape:window-y="27" inkscape:window-maximized="1" inkscape:current-layer="svg6629">
      <inkscape:grid type="xygrid" id="grid6644" />
   </sodipodi:namedview>
   <defs id="defs6631">
      <linearGradient id="a" y2="16.588" gradientUnits="userSpaceOnUse" x2="11.162" gradientTransform="matrix(0.90164,0,0,0.70484,19.621812,2.2637)" y1="-1.131" x1="11.162">
         <stop stop-color="#f0f0f0" offset="0" id="stop6634" />
         <stop stop-color="#aaa" offset="1" id="stop6636" />
      </linearGradient>
      <linearGradient inkscape:collect="always" xlink:href="#a" id="linearGradient7457" x1="12" y1="1" x2="12" y2="13" gradientUnits="userSpaceOnUse" />
   </defs>
   <path style="color:black;fill:url(#linearGradient7457);fill-opacity:1;fill-rule:nonzero;stroke:none;stroke-width:8;marker:none;visibility:visible;display:inline;overflow:visible;enable-background:accumulate" d="M 9 1 L 9 3 L 13 3 L 13 11 L 9 11 L 9 9 L 8.46875 9 L 6.15625 11.59375 C 6.06295 11.67625 6 11.83128 6 12 C 6 12.168732 6.062938 12.32375 6.15625 12.40625 L 8.40625 15 L 9 15 L 9 13 L 13 13 C 14.108 13 15 12.108 15 11 L 15 3 C 15 1.892 14.108 1 13 1 L 9 1 z " id="rect6646" />
   <path sodipodi:type="arc" style="color:black;fill:#bebebe;fill-opacity:1;fill-rule:nonzero;stroke:none;stroke-width:8;marker:none;visibility:visible;display:inline;overflow:visible;enable-background:accumulate" id="path6681" sodipodi:cx="2.5" sodipodi:cy="12.5" sodipodi:rx="1.5" sodipodi:ry="1.5" d="m 4,12.5 a 1.5,1.5 0 1 1 -3,0 1.5,1.5 0 1 1 3,0 z" transform="matrix(1.3333333,0,0,1.3333333,-0.33333333,-4.6666667)" />
</svg>

<?xml version="1.0" encoding="UTF-8" standalone="no"?>
<svg xmlns="http://www.w3.org/2000/svg" height="16" width="16" version="1.1">
 <defs>
  <linearGradient id="a" y2="13" gradientUnits="userSpaceOnUse" x2="12" gradientTransform="matrix(.90164 0 0 .70484 19.622 2.2637)" y1="1" x1="12">
   <stop stop-color="#f0f0f0" offset="0"/>
   <stop stop-color="#aaa" offset="1"/>
  </linearGradient>
 </defs>
 <path d="m9 1v2h4v8h-4v-2h-0.5312l-2.3125 2.5938c-0.0933 0.082-0.1563 0.237-0.1563 0.406 0 0.16873 0.062938 0.32375 0.15625 0.40625l2.25 2.594h0.5938v-2h4c1.108 0 2-0.892 2-2v-8c0-1.108-0.892-2-2-2h-4z" fill="url(#a)"/>
 <path transform="matrix(1.3333 0 0 1.3333 -.33333 -4.6667)" d="m4 12.5a1.5 1.5 0 1 1 -3 0 1.5 1.5 0 1 1 3 0z" fill="#bebebe"/>
</svg>
